X: 40004
T: Three Men On A White Horse
R: reel
M: 4/4
K: Amajor
|:agaf ecAB/c/|defd e2eg|agae f/g/aed|1 cABc A2ef/g/:|2 cABc A2AB||
|:c2cA BAFA|cBAF A2AB|c2cA BAFA|EAGB AGAB:|
|:c2e2 cBAB|c2e2 A3B|c2e2- e2e2|1 BAGB AGAB:|2 BAGB Aefg||

